packages/kaspersky-hexa-ui-icons/src/iconsSVGs/64x42/FlagCna.svg

<svg xmlns="http://www.w3.org/2000/svg" width="64" height="42" fill="none" viewBox="0 0 64 42"><g clip-path="url(#a)"><rect width="64" height="42" fill="#fff" rx="5"/><path fill="#19bfbf" d="M0 0h64v42H0z"/><path fill="#fff" fill-rule="evenodd" d="m30.6 30.8001-1.2065-2.413a.7.7 0 0 0-.6261-.387h-.6775a.7.7 0 0 1-.4949-.205l-5.19-5.19a.7.7 0 0 1-.205-.495V19.89a.7.7 0 0 0-.205-.4949l-2.4579-2.4579a.7.7 0 0 1-.1841-.3252l-1.2598-5.0391a.7.7 0 0 0-.4577-.4943l-3.7883-1.2628a.7.7 0 0 1-.0917-.038L11.387 8.5937A.7.7 0 0 1 11 7.9675V6.3a.7.7 0 0 1 .7-.7h1.8101a.7.7 0 0 1 .4949.205l.99.99a.7.7 0 0 0 .4949.205h2.2202a.7.7 0 0 0 .4949-.205l.99-.99a.7.7 0 0 1 .4949-.205h5.1449a.7.7 0 0 1 .313.0739l2.5044 1.2522a.7.7 0 0 0 .313.0739h2.4696a.7.7 0 0 0 .313-.0739l2.5044-1.2522a.7.7 0 0 1 .313-.0739H38.3a.7.7 0 0 1 .7.7v1.4a.7.7 0 0 1-.7.7h-1.4a.7.7 0 0 0-.7.7v3.0674c0 .2651.1498.5075.3869.6261l1.4.7c.4655.2327 1.0131-.1058 1.0131-.6261V10.5a.7.7 0 0 1 .7-.7h2.8a.7.7 0 0 1 .7.7.7.7 0 0 0 .7.7h2.8a.7.7 0 0 1 .7.7v1.9864c0 .0752-.0121.15-.0359.2214l-1.3118 3.9354a.7.7 0 0 1-.1692.2736l-4.0028 4.0029a.7.7 0 0 0-.1311.1819l-1.2753 2.5506a.7.7 0 0 0-.0739.313V27.3a.7.7 0 0 1-.7.7h-.2674a.7.7 0 0 1-.6261-.387l-1.013-2.0261a.7.7 0 0 0-.6261-.3869h-3.3348a.7.7 0 0 0-.6261.3869l-1.05 2.1a.7.7 0 0 0 0 .6261l1.05 2.1a.7.7 0 0 0 .6261.387H35.91a.7.7 0 0 1 .495.205l2.39 2.39a.7.7 0 0 1 .205.495v1.8101a.7.7 0 0 1-.7.7h-1.6674a.7.7 0 0 1-.6261-.387l-1.013-2.0261a.7.7 0 0 0-.6261-.3869h-1.9348a.7.7 0 0 1-.6261-.387z" clip-rule="evenodd"/></g><defs><clipPath id="a"><rect width="64" height="42" fill="#fff" rx="5"/></clipPath></defs></svg>

<svg width="64" height="42" viewBox="0 0 64 42" fill="none" xmlns="http://www.w3.org/2000/svg">
<g clip-path="url(#clip0_37941_2386)">
<rect width="64" height="42" rx="5" fill="white"/>
<rect width="64" height="42" fill="#19BFBF"/>
<path fill-rule="evenodd" clip-rule="evenodd" d="M30.6 30.8001L29.3935 28.3871C29.2749 28.1499 29.0325 28.0001 28.7674 28.0001H28.0899C27.9043 28.0001 27.7262 27.9263 27.595 27.7951L22.405 22.6051C22.2737 22.4738 22.2 22.2958 22.2 22.1101V19.89C22.2 19.7044 22.1263 19.5263 21.995 19.3951L19.5371 16.9372C19.4474 16.8475 19.3837 16.7351 19.353 16.612L18.0932 11.5729C18.0352 11.3407 17.8625 11.1543 17.6355 11.0786L13.8472 9.81583C13.8158 9.80536 13.7851 9.79266 13.7555 9.77785L11.387 8.59357C11.1498 8.475 11 8.23261 11 7.96747V6.3001C11 5.9135 11.3134 5.6001 11.7 5.6001H13.5101C13.6957 5.6001 13.8737 5.67385 14.005 5.80512L14.995 6.79507C15.1263 6.92635 15.3043 7.0001 15.4899 7.0001H17.7101C17.8957 7.0001 18.0737 6.92635 18.205 6.79507L19.195 5.80512C19.3263 5.67385 19.5043 5.6001 19.6899 5.6001H24.8348C24.9434 5.6001 25.0506 5.6254 25.1478 5.674L27.6522 6.9262C27.7494 6.9748 27.8566 7.0001 27.9652 7.0001H30.4348C30.5434 7.0001 30.6506 6.9748 30.7478 6.9262L33.2522 5.674C33.3494 5.6254 33.4566 5.6001 33.5652 5.6001H38.3C38.6866 5.6001 39 5.9135 39 6.3001V7.7001C39 8.0867 38.6866 8.4001 38.3 8.4001H36.9C36.5134 8.4001 36.2 8.7135 36.2 9.1001V12.1675C36.2 12.4326 36.3498 12.675 36.5869 12.7936L37.9869 13.4936C38.4524 13.7263 39 13.3878 39 12.8675V10.5001C39 10.1135 39.3134 9.8001 39.7 9.8001H42.5C42.8866 9.8001 43.2 10.1135 43.2 10.5001C43.2 10.8867 43.5134 11.2001 43.9 11.2001H46.7C47.0866 11.2001 47.4 11.5135 47.4 11.9001V13.8865C47.4 13.9617 47.3879 14.0365 47.3641 14.1079L46.0523 18.0433C46.0179 18.1464 45.96 18.2401 45.8831 18.3169L41.8803 22.3198C41.8271 22.373 41.7828 22.4344 41.7492 22.5017L40.4739 25.0523C40.4253 25.1495 40.4 25.2567 40.4 25.3653V27.3001C40.4 27.6867 40.0866 28.0001 39.7 28.0001H39.4326C39.1675 28.0001 38.9251 27.8503 38.8065 27.6131L37.7935 25.587C37.6749 25.3499 37.4325 25.2001 37.1674 25.2001H33.8326C33.5675 25.2001 33.3251 25.3499 33.2065 25.587L32.1565 27.687C32.058 27.8841 32.058 28.1161 32.1565 28.3131L33.2065 30.4131C33.3251 30.6503 33.5675 30.8001 33.8326 30.8001H35.91C36.0957 30.8001 36.2737 30.8738 36.405 31.0051L38.795 33.3951C38.9262 33.5264 39 33.7044 39 33.89V35.7001C39 36.0867 38.6866 36.4001 38.3 36.4001H36.6326C36.3675 36.4001 36.1251 36.2503 36.0065 36.0131L34.9935 33.987C34.8749 33.7499 34.6325 33.6001 34.3674 33.6001H32.4326C32.1675 33.6001 31.9251 33.4503 31.8065 33.2131L30.6 30.8001Z" fill="white"/>
</g>
<defs>
<clipPath id="clip0_37941_2386">
<rect width="64" height="42" rx="5" fill="white"/>
</clipPath>
</defs>
</svg>
